packages/ffe-icons/icons/filled/md/note_add.svg

<svg xmlns="http://www.w3.org/2000/svg" height="24" viewBox="0 -960 960 960" width="24"><path d="M252.309-100.001q-30.308 0-51.308-21t-21-51.308v-615.382q0-30.308 21-51.308t51.308-21h287.769q14.632 0 27.893 5.616 13.26 5.615 23.107 15.461l167.844 167.844q9.846 9.847 15.461 23.107 5.616 13.261 5.616 27.893v447.769q0 30.308-21 51.308t-51.308 21H252.309Zm287.692-556q0 15.3 10.35 25.65 10.35 10.35 25.65 10.35H720L540.001-800v143.999Zm-90 286V-280q0 12.75 8.628 21.374 8.629 8.625 21.384 8.625 12.756 0 21.371-8.625 8.615-8.624 8.615-21.374v-90.001H600q12.75 0 21.375-8.628 8.624-8.629 8.624-21.384 0-12.756-8.624-21.371-8.625-8.615-21.375-8.615h-90.001V-520q0-12.75-8.628-21.375-8.629-8.624-21.384-8.624-12.756 0-21.371 8.624-8.615 8.625-8.615 21.375v90.001H360q-12.75 0-21.374 8.628-8.625 8.629-8.625 21.384 0 12.756 8.625 21.371 8.624 8.615 21.374 8.615h90.001Z"/></svg>

<svg xmlns="http://www.w3.org/2000/svg" height="24" viewBox="0 -960 960 960" width="24"><path d="M252.31-100Q222-100 201-121q-21-21-21-51.31v-615.38Q180-818 201-839q21-21 51.31-21h287.77q14.63 0 27.89 5.62 13.26 5.61 23.11 15.46l167.84 167.84q9.85 9.85 15.46 23.11 5.62 13.26 5.62 27.89v447.77Q780-142 759-121q-21 21-51.31 21H252.31ZM540-656q0 15.3 10.35 25.65Q560.7-620 576-620h144L540-800v144Zm-90 286v90q0 12.75 8.63 21.37 8.63 8.63 21.38 8.63 12.76 0 21.37-8.63Q510-267.25 510-280v-90h90q12.75 0 21.37-8.63 8.63-8.63 8.63-21.38 0-12.76-8.63-21.37Q612.75-430 600-430h-90v-90q0-12.75-8.63-21.37-8.63-8.63-21.38-8.63-12.76 0-21.37 8.63Q450-532.75 450-520v90h-90q-12.75 0-21.37 8.63-8.63 8.63-8.63 21.38 0 12.76 8.63 21.37Q347.25-370 360-370h90Z"/></svg>
